X:719
T:
S:Ur en gammal notbok från Hogrän.
O:Gotland, Hogrän
R:långdans
M:2/4
L:1/16
K:F
f2{/g}(fe) f2a2|c2f2A2c2|g2{/a}(g^f) g2b2|c2(de) f4:|
|:(bc=Bc) (=Bcdc)|(=Bcde) f2c2|(bc=Bc) (=Bcdc)|(=Bcde) f4:|

